; generated by PrusaSlicer 2.2.0+ on 2020-07-06 at 14:14:03 UTC

; 

; external perimeters extrusion width = 0.45mm
; perimeters extrusion width = 0.45mm
; infill extrusion width = 0.45mm
; solid infill extrusion width = 0.45mm
; top infill extrusion width = 0.40mm
; first layer extrusion width = 0.42mm

M73 P0 R28
M73 Q0 S28
M201 X1000 Y1000 Z200 E5000 ; sets maximum accelerations, mm/sec^2
M203 X200 Y200 Z12 E120 ; sets maximum feedrates, mm/sec
M204 P1250 R1250 T1250 ; sets acceleration (P, T) and retract acceleration (R), mm/sec^2
M205 X8.00 Y8.00 Z0.40 E4.50 ; sets the jerk limits, mm/sec
M205 S0 T0 ; sets the minimum extruding and travel feed rate, mm/sec
M107
M862.3 P "MK3S" ; printer model check
M862.1 P0.4 ; nozzle diameter check
M115 U3.9.0 ; tell printer latest fw version
G90 ; use absolute coordinates
M83 ; extruder relative mode
M104 S215 ; set extruder temp
M140 S60 ; set bed temp
M190 S60 ; wait for bed temp
M109 S215 ; wait for extruder temp
G28 W ; home all without mesh bed level
G80 ; mesh bed leveling
G1 Y-3.0 F1000.0 ; go outside print area
G92 E0.0
G1 X60.0 E9.0 F1000.0 ; intro line
M73 Q0 S28
M73 P0 R28
G1 X100.0 E12.5 F1000.0 ; intro line
G92 E0.0
M221 S95
G21 ; set units to millimeters
G90 ; use absolute coordinates
M83 ; use relative distances for extrusion
M900 K0.06 ; Filament gcode LA 1.5
M900 K30 ; Filament gcode LA 1.0
;BEFORE_LAYER_CHANGE
G92 E0.0
;0.2


G1 E-0.80000 F2100.00000
G1 Z0.600 F10800.000
;AFTER_LAYER_CHANGE
;0.2
G1 X116.044 Y90.095
G1 Z0.200
G1 E0.80000 F2100.00000
M204 S1000
G1 F1200.000
G1 X116.721 Y89.522 E0.02780
G1 X117.584 Y89.091 E0.03025
G1 X118.821 Y88.858 E0.03948
G1 X123.178 Y88.856 E0.13661
G1 X123.828 Y88.911 E0.02045
G1 X124.593 Y89.115 E0.02482
G1 X125.191 Y89.398 E0.02075
G1 X125.744 Y89.785 E0.02114
G1 X126.287 Y90.331 E0.02416
G1 X126.672 Y90.890 E0.02127
G1 X126.949 Y91.491 E0.02075
G1 X127.155 Y92.293 E0.02595
G1 X127.168 Y114.853 E0.70736
G1 X127.030 Y115.509 E0.02103
G1 X126.731 Y116.241 E0.02480
G1 X123.522 Y122.321 E0.21555
G1 X122.982 Y123.070 E0.02894
G1 X122.115 Y123.792 E0.03540
G1 X121.166 Y124.218 E0.03260
G1 X120.177 Y124.385 E0.03144
G1 X118.884 Y124.360 E0.04058
G1 X118.239 Y124.225 E0.02065
G1 X117.535 Y123.943 E0.02377
G1 X116.528 Y123.209 E0.03908
G1 X116.110 Y122.716 E0.02025
G1 X115.724 Y122.055 E0.02402
G1 X115.499 Y121.445 E0.02038
G1 X115.378 Y120.828 E0.01972
G1 X115.371 Y91.590 E0.91674
G1 X115.594 Y90.791 E0.02600
G1 X116.011 Y90.145 E0.02412
G1 X115.946 Y90.928 F10800.000
G1 F1200.000
G1 X116.351 Y90.318 E0.02296
G1 X116.958 Y89.818 E0.02466
G1 X117.762 Y89.429 E0.02801
G1 X118.852 Y89.235 E0.03470
G1 X123.178 Y89.233 E0.13565
G1 X123.781 Y89.286 E0.01899
G1 X124.515 Y89.489 E0.02388
G1 X125.065 Y89.762 E0.01926
G1 X125.631 Y90.187 E0.02218
G1 X126.047 Y90.633 E0.01914
G1 X126.374 Y91.131 E0.01867
G1 X126.656 Y91.800 E0.02276
G1 X126.786 Y92.377 E0.01855
G1 X126.793 Y114.810 E0.70336
G1 X126.670 Y115.398 E0.01883
G1 X126.398 Y116.063 E0.02253
G1 X123.199 Y122.126 E0.21494
G1 X122.821 Y122.681 E0.02104
G1 X121.972 Y123.435 E0.03560
G1 X121.092 Y123.846 E0.03047
G1 X120.161 Y124.008 E0.02964
G1 X118.926 Y123.985 E0.03870
G1 X118.346 Y123.864 E0.01859
G1 X117.697 Y123.602 E0.02193
G1 X116.789 Y122.937 E0.03532
G1 X116.417 Y122.496 E0.01808
G1 X116.059 Y121.882 E0.02228
G1 X115.751 Y120.767 E0.03627
G1 X115.746 Y91.632 E0.91350
G1 X115.929 Y90.985 E0.02108
G1 F8640.000
G1 X116.351 Y90.318 E-0.18232
G1 X116.958 Y89.818 E-0.18162
G1 X117.762 Y89.429 E-0.20628
G1 X118.571 Y89.284 E-0.18979
G1 E-0.04000 F2100.00000
G1 Z0.800 F10800.000
G1 X119.210 Y92.450
G1 Z0.200
G1 E0.80000 F2100.00000
G1 F1200.000
G1 X123.128 Y92.450 E0.12286
G1 X123.304 Y92.477 E0.00559
G1 X123.451 Y92.553 E0.00517
G1 X123.553 Y92.689 E0.00533
G1 X123.602 Y92.855 E0.00543
G1 X123.602 Y114.386 E0.67511
G1 X123.553 Y114.552 E0.00543
G1 X123.489 Y114.646 E0.00355
G1 X123.403 Y114.719 E0.00355
G1 X123.282 Y114.775 E0.00417
G1 X122.301 Y114.802 E0.03077
G1 X121.863 Y114.902 E0.01409
G1 X121.614 Y115.005 E0.00846
G1 X121.227 Y115.248 E0.01432
G1 X120.904 Y115.571 E0.01432
G1 X120.748 Y115.791 E0.00846
G1 X120.549 Y116.203 E0.01432
G1 X120.444 Y116.664 E0.01482
G1 X120.422 Y120.461 E0.11907
G1 X120.346 Y120.624 E0.00565
G1 X120.218 Y120.737 E0.00534
G1 X120.006 Y120.796 E0.00689
G1 X119.346 Y120.791 E0.02070
G1 X119.210 Y120.759 E0.00438
G1 X119.082 Y120.673 E0.00484
G1 X119.010 Y120.582 E0.00362
G1 X118.955 Y120.442 E0.00473
G1 X118.945 Y115.194 E0.16455
G1 X118.970 Y114.990 E0.00643
G1 X119.028 Y114.838 E0.00512
G1 X119.121 Y114.703 E0.00513
G1 X119.297 Y114.558 E0.00714
G1 X119.542 Y114.477 E0.00809
G1 X120.010 Y114.457 E0.01471
G1 X120.482 Y114.357 E0.01513
G1 X120.935 Y114.156 E0.01552
G1 X121.335 Y113.865 E0.01552
G1 X121.656 Y113.508 E0.01503
G1 X121.808 Y113.275 E0.00873
G1 X122.003 Y112.837 E0.01503
G1 X122.105 Y112.353 E0.01551
G1 X122.115 Y94.933 E0.54619
G1 X122.067 Y94.476 E0.01439
G1 X121.914 Y94.006 E0.01551
G1 X121.666 Y93.577 E0.01552
G1 X121.335 Y93.210 E0.01552
G1 X120.935 Y92.919 E0.01552
G1 X120.482 Y92.717 E0.01552
G1 X120.010 Y92.617 E0.01513
G1 X119.466 Y92.584 E0.01710
G1 X119.257 Y92.487 E0.00723
G1 X118.599 Y92.170 F10800.000
G1 F1200.000
G1 X118.654 Y92.126 E0.00220
G1 X118.746 Y92.097 E0.00302
G1 X118.955 Y92.073 E0.00661
G1 X123.157 Y92.073 E0.13173
G1 X123.414 Y92.112 E0.00817
G1 X123.614 Y92.205 E0.00689
G1 X123.695 Y92.264 E0.00315
G1 X123.767 Y92.334 E0.00315
G1 X123.893 Y92.517 E0.00695
G1 X123.965 Y92.726 E0.00695
G1 X123.979 Y92.829 E0.00326
G1 X123.979 Y114.411 E0.67669
G1 X123.965 Y114.515 E0.00326
G1 X123.893 Y114.724 E0.00695
G1 X123.771 Y114.901 E0.00673
G1 X123.607 Y115.039 E0.00673
G1 X123.406 Y115.133 E0.00695
G1 X123.316 Y115.154 E0.00290
G1 X122.348 Y115.178 E0.03036
G1 X121.978 Y115.262 E0.01191
G1 X121.787 Y115.341 E0.00647
G1 X121.463 Y115.545 E0.01199
G1 X121.193 Y115.815 E0.01199
G1 X121.074 Y115.983 E0.00647
G1 X120.908 Y116.328 E0.01199
G1 X120.821 Y116.706 E0.01217
G1 X120.812 Y120.352 E0.11430
G1 X120.794 Y120.530 E0.00562
G1 X120.768 Y120.624 E0.00305
G1 X120.665 Y120.828 E0.00717
G1 X120.607 Y120.901 E0.00293
G1 X120.432 Y121.049 E0.00717
G1 X120.350 Y121.094 E0.00293
G1 X120.132 Y121.162 E0.00717
G1 X120.024 Y121.173 E0.00340
G1 X119.301 Y121.168 E0.02268
G1 X119.082 Y121.116 E0.00706
G1 X118.973 Y121.062 E0.00380
G1 X118.817 Y120.945 E0.00613
G1 X118.683 Y120.776 E0.00675
G1 X118.597 Y120.572 E0.00695
G1 X118.578 Y120.480 E0.00294
G1 X118.568 Y115.172 E0.16645
G1 X118.601 Y114.900 E0.00860
G1 X118.692 Y114.661 E0.00800
G1 X118.837 Y114.451 E0.00801
G1 X119.033 Y114.277 E0.00821
G1 X119.131 Y114.218 E0.00361
G1 X119.382 Y114.123 E0.00841
G1 X119.500 Y114.101 E0.00375
G1 X119.963 Y114.082 E0.01454
G1 X120.365 Y113.996 E0.01290
G1 X120.745 Y113.827 E0.01303
G1 X121.081 Y113.583 E0.01303
G1 X121.356 Y113.278 E0.01286
G1 X121.475 Y113.094 E0.00687
G1 X121.642 Y112.720 E0.01286
G1 X121.728 Y112.313 E0.01303
G1 X121.738 Y94.953 E0.54432
G1 X121.696 Y94.555 E0.01253
G1 X121.567 Y94.160 E0.01303
G1 X121.359 Y93.800 E0.01303
G1 X121.081 Y93.491 E0.01303
G1 X120.745 Y93.247 E0.01303
G1 X120.365 Y93.078 E0.01303
G1 X119.963 Y92.992 E0.01290
G1 X119.500 Y92.973 E0.01454
G1 X119.260 Y92.914 E0.00775
G1 X119.028 Y92.793 E0.00821
G1 X118.837 Y92.623 E0.00801
G1 X118.692 Y92.413 E0.00801
G1 X118.621 Y92.226 E0.00627
G1 X118.669 Y92.164 F10800.000
G1 F8640.000
G1 X118.654 Y92.126 E-0.02440
G1 X118.746 Y92.097 E-0.02225
G1 X118.955 Y92.073 E-0.04868
G1 X121.834 Y92.073 E-0.66468
G1 E-0.04000 F2100.00000
G1 Z0.800 F10800.000
G1 X120.865 Y92.648
G1 Z0.200
G1 E0.80000 F2100.00000
G1 F1200.000
G1 X121.274 Y92.758 E0.00451
G1 F8640.000
G1 X120.865 Y92.648 E-0.09781
G1 E-0.70219 F2100.00000
G1 Z0.800 F10800.000
G1 X123.489 Y93.533
G1 Z0.200
G1 E0.80000 F2100.00000
G1 F1200.000
G1 X122.689 Y92.733 E0.03572
G1 X122.152 Y92.733 E0.01695
G1 X123.319 Y93.900 E0.05212
G1 X123.319 Y94.437 E0.01695
G1 X121.615 Y92.733 E0.07609
G1 X121.574 Y92.733 E0.00129
G1 X121.506 Y92.984 E0.00823
G1 X121.896 Y93.410 E0.01823
G1 X122.089 Y93.744 E0.01215
G1 X123.319 Y94.974 E0.05494
G1 X123.319 Y95.511 E0.01695
G1 X122.359 Y94.551 E0.04288
G1 X122.398 Y94.918 E0.01167
G1 X122.398 Y95.126 E0.00657
G1 X123.319 Y96.048 E0.04115
G1 X123.319 Y96.585 E0.01695
G1 X122.397 Y95.663 E0.04116
G1 X122.397 Y96.200 E0.01694
G1 X123.319 Y97.122 E0.04118
G1 X123.319 Y97.659 E0.01695
G1 X122.397 Y96.736 E0.04119
G1 X122.396 Y97.273 E0.01694
G1 X123.319 Y98.196 E0.04120
G1 X123.319 Y98.733 E0.01695
G1 X122.396 Y97.810 E0.04121
G1 X122.396 Y98.346 E0.01694
G1 X123.319 Y99.270 E0.04123
G1 X123.319 Y99.807 E0.01695
G1 X122.396 Y98.883 E0.04124
G1 X122.395 Y99.420 E0.01694
G1 X123.319 Y100.344 E0.04125
G1 X123.319 Y100.881 E0.01695
G1 X122.395 Y99.956 E0.04127
G1 X122.395 Y100.493 E0.01694
G1 X123.319 Y101.418 E0.04128
G1 X123.319 Y101.955 E0.01695
G1 X122.394 Y101.030 E0.04129
G1 X122.394 Y101.566 E0.01694
G1 X123.319 Y102.492 E0.04131
G1 X123.319 Y103.028 E0.01695
G1 X122.394 Y102.103 E0.04132
G1 X122.393 Y102.640 E0.01694
G1 X123.319 Y103.565 E0.04133
G1 X123.319 Y104.102 E0.01695
G1 X122.393 Y103.176 E0.04135
G1 X122.393 Y103.713 E0.01694
G1 X123.319 Y104.639 E0.04136
G1 X123.319 Y105.176 E0.01695
G1 X122.393 Y104.250 E0.04137
G1 X122.392 Y104.786 E0.01694
G1 X123.319 Y105.713 E0.04138
G1 X123.319 Y106.250 E0.01695
G1 X122.392 Y105.323 E0.04140
G1 X122.392 Y105.860 E0.01694
G1 X123.319 Y106.787 E0.04141
G1 X123.319 Y107.324 E0.01695
G1 X122.391 Y106.396 E0.04142
G1 X122.391 Y106.933 E0.01694
G1 X123.319 Y107.861 E0.04144
G1 X123.319 Y108.398 E0.01695
G1 X122.391 Y107.470 E0.04145
G1 X122.391 Y108.006 E0.01694
G1 X123.319 Y108.935 E0.04146
G1 X123.319 Y109.472 E0.01695
G1 X122.390 Y108.543 E0.04148
G1 X122.390 Y109.080 E0.01694
G1 X123.319 Y110.009 E0.04149
G1 X123.319 Y110.546 E0.01695
G1 X122.390 Y109.616 E0.04150
G1 X122.389 Y110.153 E0.01694
G1 X123.319 Y111.083 E0.04152
G1 X123.319 Y111.620 E0.01695
G1 X122.389 Y110.690 E0.04153
G1 X122.389 Y111.226 E0.01694
G1 X123.319 Y112.157 E0.04154
G1 X123.319 Y112.694 E0.01695
G1 X122.389 Y111.763 E0.04155
G1 X122.388 Y112.300 E0.01694
G1 X123.319 Y113.231 E0.04157
G1 X123.319 Y113.768 E0.01695
G1 X122.309 Y112.757 E0.04512
G1 X122.273 Y112.925 E0.00541
G1 X122.170 Y113.156 E0.00798
G1 X123.319 Y114.305 E0.05130
G1 X123.319 Y114.345 E0.00128
G1 X123.277 Y114.454 E0.00368
G1 X123.216 Y114.493 E0.00230
G1 X122.978 Y114.500 E0.00752
G1 X121.990 Y113.513 E0.04409
G1 X121.881 Y113.681 E0.00634
G1 X121.758 Y113.817 E0.00580
G1 X122.455 Y114.515 E0.03113
G1 X122.265 Y114.520 E0.00600
G1 X121.987 Y114.583 E0.00901
G1 X121.499 Y114.095 E0.02180
G1 X121.188 Y114.321 E0.01214
G1 X121.580 Y114.713 E0.01750
G1 X121.483 Y114.753 E0.00330
G1 X121.237 Y114.908 E0.00917
G1 X120.838 Y114.508 E0.01783
G1 X120.570 Y114.627 E0.00925
G1 X120.446 Y114.654 E0.00400
G1 X120.934 Y115.141 E0.02176
G1 X120.669 Y115.413 E0.01199
G1 X119.997 Y114.741 E0.03002
G1 X119.593 Y114.758 E0.01275
G1 X119.506 Y114.787 E0.00292
G1 X120.459 Y115.740 E0.04255
G1 X120.284 Y116.102 E0.01270
G1 X119.246 Y115.064 E0.04635
G1 X119.228 Y115.211 E0.00466
G1 X119.229 Y115.584 E0.01179
G1 X120.183 Y116.538 E0.04259
G1 X120.162 Y116.631 E0.00302
G1 X120.160 Y117.053 E0.01330
G1 X119.230 Y116.122 E0.04155
G1 X119.231 Y116.660 E0.01698
G1 X120.159 Y117.588 E0.04144
G1 X120.158 Y118.124 E0.01691
G1 X119.232 Y117.198 E0.04134
G1 X119.233 Y117.736 E0.01698
G1 X120.156 Y118.659 E0.04124
G1 X120.155 Y119.195 E0.01691
G1 X119.234 Y118.274 E0.04113
G1 X119.235 Y118.812 E0.01698
G1 X120.154 Y119.731 E0.04103
G1 X120.152 Y120.266 E0.01691
G1 X119.236 Y119.350 E0.04092
G1 X119.237 Y119.887 E0.01698
G1 X120.027 Y120.677 E0.03527
M106 S255
;BEFORE_LAYER_CHANGE
G92 E0.0
;0.35


G1 F8640.000
G1 X119.237 Y119.887 E-0.25794
G1 X119.236 Y119.350 E-0.12421
G1 X120.152 Y120.266 E-0.29931
G1 X120.153 Y119.926 E-0.07854
G1 E-0.04000 F2100.00000
G1 Z0.800 F10800.000
;AFTER_LAYER_CHANGE
;0.35
G1 X122.115 Y123.792
G1 Z0.350
G1 E0.80000 F2100.00000
G1 F1358
G1 X121.166 Y124.218 E0.02514
G1 X120.177 Y124.385 E0.02425
G1 X118.884 Y124.360 E0.03130
G1 X118.239 Y124.225 E0.01593
G1 X117.535 Y123.943 E0.01834
G1 X116.528 Y123.209 E0.03014
G1 X116.110 Y122.716 E0.01562
G1 X115.724 Y122.055 E0.01853
G1 X115.499 Y121.445 E0.01572
G1 X115.378 Y120.828 E0.01521
G1 X115.371 Y91.590 E0.70712
G1 X115.594 Y90.791 E0.02005
G1 X116.044 Y90.095 E0.02005
G1 X116.721 Y89.522 E0.02144
G1 X117.584 Y89.091 E0.02333
G1 X118.821 Y88.858 E0.03045
G1 X123.178 Y88.856 E0.10537
G1 X123.828 Y88.911 E0.01578
G1 X124.593 Y89.115 E0.01915
G1 X125.191 Y89.398 E0.01601
G1 X125.744 Y89.785 E0.01631
G1 X126.287 Y90.331 E0.01863
G1 X126.672 Y90.890 E0.01641
G1 X126.949 Y91.491 E0.01601
G1 X127.155 Y92.293 E0.02002
G1 X127.168 Y114.853 E0.54562
G1 X127.030 Y115.509 E0.01622
G1 X126.731 Y116.241 E0.01913
G1 X123.522 Y122.321 E0.16627
G1 X122.982 Y123.070 E0.02232
G1 X122.161 Y123.754 E0.02585
G1 X121.972 Y123.435 F10800.000
G1 F1358
G1 X121.092 Y123.846 E0.02350
G1 X120.161 Y124.008 E0.02286
G1 X118.926 Y123.985 E0.02985
G1 X118.346 Y123.864 E0.01434
G1 X117.697 Y123.602 E0.01692
G1 X116.789 Y122.937 E0.02724
G1 X116.417 Y122.496 E0.01395
G1 X116.059 Y121.882 E0.01719
G1 X115.751 Y120.767 E0.02797
G1 X115.746 Y91.632 E0.70462
G1 X115.946 Y90.928 E0.01771
G1 X116.351 Y90.318 E0.01771
G1 X116.958 Y89.818 E0.01902
G1 X117.762 Y89.429 E0.02161
G1 X118.852 Y89.235 E0.02677
G1 X123.178 Y89.233 E0.10463
G1 X123.781 Y89.286 E0.01465
G1 X124.515 Y89.489 E0.01842
G1 X125.065 Y89.762 E0.01485
G1 X125.631 Y90.187 E0.01711
G1 X126.047 Y90.633 E0.01476
G1 X126.374 Y91.131 E0.01440
G1 X126.656 Y91.800 E0.01756
G1 X126.786 Y92.377 E0.01431
G1 X126.793 Y114.810 E0.54253
G1 X126.670 Y115.398 E0.01452
G1 X126.398 Y116.063 E0.01738
G1 X123.199 Y122.126 E0.16580
G1 X122.821 Y122.681 E0.01623
G1 X122.017 Y123.395 E0.02601
G1 F8640.000
G1 X121.092 Y123.846 E-0.23772
G1 X120.161 Y124.008 E-0.21828
G1 X118.926 Y123.985 E-0.28503
G1 X118.846 Y123.968 E-0.01898
G1 E-0.04000 F2100.00000
G1 Z0.950 F10800.000
G1 X118.806 Y120.624
G1 Z0.350
G1 E0.80000 F2100.00000
M204 S800
G1 F1358
G1 X118.759 Y120.448 E0.00476
G1 X118.759 Y115.048 E0.14070
G1 X118.814 Y114.824 E0.00602
G1 X119.032 Y114.508 E0.01000
G1 X119.300 Y114.338 E0.00826
G1 X119.538 Y114.280 E0.00637
G1 X120.007 Y114.258 E0.01225
G1 X120.270 Y114.210 E0.00695
G1 X120.538 Y114.127 E0.00733
G1 X120.984 Y113.892 E0.01313
G1 X121.376 Y113.545 E0.01364
G1 X121.674 Y113.114 E0.01364
G1 X121.852 Y112.643 E0.01313
G1 X121.907 Y112.348 E0.00783
G1 X121.918 Y94.930 E0.45383
G1 X121.859 Y94.449 E0.01262
G1 X121.674 Y93.960 E0.01364
G1 X121.376 Y93.529 E0.01364
G1 X120.984 Y93.182 E0.01364
G1 X120.538 Y92.948 E0.01313
G1 X120.270 Y92.864 E0.00733
G1 X120.007 Y92.816 E0.00695
G1 X119.538 Y92.794 E0.01226
G1 X119.319 Y92.741 E0.00587
G1 X119.061 Y92.591 E0.00777
G1 X118.908 Y92.418 E0.00602
G1 X118.827 Y92.265 E0.00452
G1 X123.133 Y92.253 E0.11219
G1 X123.356 Y92.282 E0.00585
G1 X123.469 Y92.329 E0.00318
G1 X123.657 Y92.484 E0.00636
G1 X123.772 Y92.699 E0.00635
G1 X123.801 Y92.921 E0.00586
G1 X123.791 Y114.442 E0.56074
G1 X123.748 Y114.599 E0.00423
G1 X123.668 Y114.739 E0.00420
G1 X123.504 Y114.891 E0.00583
G1 X123.273 Y114.978 E0.00644
G1 X122.498 Y114.989 E0.02019
G1 X122.069 Y115.045 E0.01126
G1 X121.792 Y115.139 E0.00763
G1 X121.377 Y115.379 E0.01249
G1 X121.023 Y115.733 E0.01305
G1 X120.773 Y116.167 E0.01305
G1 X120.643 Y116.650 E0.01302
G1 X120.632 Y120.324 E0.09573
G1 X120.590 Y120.586 E0.00693
G1 X120.461 Y120.793 E0.00635
G1 X120.299 Y120.917 E0.00531
G1 X120.085 Y120.983 E0.00583
G1 X119.294 Y120.982 E0.02062
G1 X119.081 Y120.917 E0.00580
G1 X118.936 Y120.806 E0.00475
G1 X118.836 Y120.676 E0.00428
M204 S1000
G1 F8640.000
G1 X118.759 Y120.448 E-0.05558
G1 X118.759 Y117.397 E-0.70442
G1 E-0.04000 F2100.00000
G1 Z0.950 F10800.000
G1 X118.345 Y92.030
G1 Z0.350
G1 E0.80000 F2100.00000
M204 S800
G1 F1358
G1 X118.461 Y91.952 E0.00363
G1 X118.698 Y91.864 E0.00659
G1 X118.807 Y91.844 E0.00290
